remix/Logos/reddit-line.svg

<svg viewBox="0 0 24 24" fill="currentColor" xmlns="http://www.w3.org/2000/svg"><path d="M11.0526 7.8154L11.8042 4.27941C12.0339 3.19898 13.0959 2.50929 14.1764 2.73894L17.3725 3.4183C17.8351 2.90546 18.5509 2.64644 19.275 2.80035C20.3554 3.03 21.0451 4.09204 20.8155 5.17247C20.5858 6.2529 19.5238 6.94259 18.4434 6.71294C17.7193 6.55903 17.1707 6.03124 16.9567 5.3746L13.7605 4.69523L13.0943 7.82978C14.8789 7.96683 16.6522 8.56079 18.2581 9.52961C19.0892 9.06763 20.0992 8.99337 21.007 9.36091C22.1731 9.833 22.9531 10.9459 22.9991 12.2031L22.9996 12.2241C23.0151 13.2277 22.559 14.1657 21.792 14.7742C21.7899 14.8178 21.7871 14.859 21.7836 14.8971C21.7836 18.8949 17.3341 21.9267 11.9852 21.9267C6.65232 21.9267 2.27693 18.9027 2.27987 14.9738C2.27523 14.9134 2.27162 14.853 2.26905 14.7926C1.46701 14.1873 0.984722 13.2277 1.00037 12.1962C1.01955 10.9317 1.78341 9.79777 2.94804 9.30491C3.85909 8.91936 4.881 8.98299 5.72371 9.44381C7.3578 8.46653 9.15777 7.91241 11.0526 7.8154ZM20.3385 13.341C20.7466 13.1382 21.003 12.7207 21.0001 12.2656C20.9789 11.8005 20.6887 11.3897 20.2565 11.2147C19.821 11.0384 19.3226 11.1343 18.9837 11.4597L18.3991 12.0207L17.729 11.5652C16.1137 10.4672 14.2771 9.8397 12.4995 9.80134L11.493 9.80123C9.61791 9.8295 7.84136 10.4002 6.25552 11.4757L5.59246 11.9254L5.00897 11.3764C4.66501 11.0528 4.16243 10.9627 3.7275 11.1468C3.29257 11.3308 3.0073 11.7543 3 12.2265C2.99298 12.6987 3.26526 13.1307 3.69441 13.3278L4.32738 13.6186L4.27399 14.3132C4.261 14.482 4.261 14.6516 4.27693 14.8971C4.27693 17.6071 7.63313 19.9267 11.9852 19.9267C16.3561 19.9267 19.7836 17.5913 19.7865 14.8205C19.7995 14.6516 19.7995 14.482 19.7865 14.3132L19.7348 13.6411L20.3385 13.341ZM6.95075 13.4999C6.95075 12.6715 7.62232 11.9999 8.45075 11.9999C9.27918 11.9999 9.95075 12.6715 9.95075 13.4999C9.95075 14.3283 9.27918 14.9999 8.45075 14.9999C8.05292 14.9999 7.67139 14.8419 7.39009 14.5606C7.10878 14.2793 6.95075 13.8977 6.95075 13.4999ZM13.9507 13.4999C13.9507 12.6715 14.6223 11.9999 15.4507 11.9999C16.2792 11.9999 16.9507 12.6715 16.9507 13.4999C16.9507 14.3283 16.2792 14.9999 15.4507 14.9999C15.0529 14.9999 14.6714 14.8419 14.3901 14.5606C14.1088 14.2793 13.9507 13.8977 13.9507 13.4999ZM11.9665 18.6028C10.5693 18.6028 9.19993 18.2329 8.08503 17.3928C7.94659 17.2241 7.95868 16.9779 8.11299 16.8236C8.2673 16.6693 8.51349 16.6572 8.68218 16.7956C9.62697 17.4886 10.805 17.7856 11.9507 17.7856C13.0965 17.7856 14.2813 17.5112 15.235 16.8271C15.3473 16.7176 15.5095 16.6763 15.6604 16.7188C15.8114 16.7613 15.9282 16.8811 15.9669 17.0331C16.0055 17.1851 15.9517 17.3346 15.8479 17.4556C15.1638 18.2531 13.3636 18.6028 11.9665 18.6028Z"/></svg>

<svg viewBox="0 0 24 24" xmlns="http://www.w3.org/2000/svg"><path fill="none" d="M0 0h24v24H0Z"/><path d="M11.102 7.81l.75-3.54v0c.22-1.09 1.29-1.77 2.37-1.55 0 0 0 0 0 0l3.19.68v0c.73-.83 2-.89 2.82-.15 .82.73.88 2 .14 2.82 -.74.82-2.01.88-2.83.14 -.27-.24-.46-.54-.57-.87l-3.2-.68 -.67 3.135c1.78.13 3.55.73 5.16 1.7v0c1.54-.86 3.48-.31 4.34 1.23 .24.43.38.93.4 1.43v.02 0c.01.99-.44 1.93-1.21 2.55v0c-.01.04-.01.08-.01.12 0 3.99-4.45 7.03-9.799 7.03 -5.34 0-9.71-3.03-9.705-6.96l0 0c-.01-.07-.01-.13-.01-.19H2.26c-1.41-1.06-1.7-3.06-.64-4.47 .95-1.28 2.69-1.65 4.09-.89v0c1.61-.98 3.44-1.54 5.32-1.63Zm9.28 5.526c.4-.21.66-.62.66-1.08v0c-.03-.66-.59-1.17-1.25-1.14 -.29.01-.57.13-.78.33l-.59.56 -.67-.46c-1.62-1.1-3.452-1.73-5.23-1.77h-1.01c-1.875.02-3.651.6-5.237 1.67l-.67.45 -.59-.55v0c-.48-.46-1.24-.43-1.69.05 -.46.47-.43 1.23.05 1.68 .09.08.2.16.31.21l.63.29 -.06.69c-.02.17-.02.33 0 .58 0 2.71 3.356 5.03 7.708 5.03 4.37 0 7.79-2.34 7.802-5.106v0c.01-.17.01-.34 0-.51l-.06-.68 .6-.3Zm-13.39.15v0c0-.83.67-1.5 1.5-1.5 .82 0 1.5.67 1.5 1.5v0c0 .82-.68 1.5-1.5 1.5 -.83 0-1.5-.68-1.5-1.5Zm7 0v0c0-.83.67-1.5 1.5-1.5 .82 0 1.5.67 1.5 1.5v0c0 .82-.68 1.5-1.5 1.5 -.83 0-1.5-.68-1.5-1.5ZM12 18.586c-1.4 0-2.77-.37-3.89-1.21H8.11c-.15-.19-.13-.45.05-.6 .15-.13.38-.13.54 0 .94.69 2.12.99 3.269.99 1.14 0 2.33-.28 3.28-.96l0 0c.17-.17.45-.17.62 0 .05.05.09.12.11.19v0c.03.15-.02.31-.12.42 -.69.79-2.484 1.14-3.89 1.14Z"/></svg>
